app/images/icons/security-icon.svg

<?xml version="1.0" encoding="UTF-8" standalone="no"?>
<svg width="54px" height="76px" viewBox="0 0 54 76" version="1.1" xmlns="http://www.w3.org/2000/svg" xmlns:xlink="http://www.w3.org/1999/xlink" xmlns:sketch="http://www.bohemiancoding.com/sketch/ns">
    <!-- Generator: Sketch 3.1 (8751) - http://www.bohemiancoding.com/sketch -->
    <title>security-icon</title>
    <desc>Created with Sketch.</desc>
    <defs></defs>
    <g id="Page-1" stroke="none" stroke-width="1" fill="none" fill-rule="evenodd" sketch:type="MSPage">
        <g id="security-icon" sketch:type="MSLayerGroup" fill="#1B1A19">
            <path d="M25.7142857,50.3107333 L25.7142857,58.9747333 C25.7142857,59.6840667 26.2902857,60.2414 27,60.2414 C27.711,60.2414 28.2857143,59.6840667 28.2857143,58.9747333 L28.2857143,50.3107333 C29.0507143,49.8674 29.5714286,49.058 29.5714286,48.1333333 C29.5714286,46.7387333 28.4181429,45.6 27,45.6 C25.5818571,45.6 24.4285714,46.7387333 24.4285714,48.1333333 C24.4285714,49.058 24.9492857,49.8674 25.7142857,50.3107333" id="Fill-1776" sketch:type="MSShapeGroup"></path>
            <path d="M2.57142857,32.9333333 L51.4285714,32.9333333 L51.4285714,73.4654 L2.57142857,73.4654 L2.57142857,32.9333333 Z M10.2857143,20.2654 C10.2857143,11.7027333 17.0022857,2.53206667 27,2.53206667 C36.999,2.53206667 43.7142857,11.7027333 43.7142857,20.2654 L43.7142857,30.4 L10.2857143,30.4 L10.2857143,20.2654 L10.2857143,20.2654 Z M46.2857143,30.4 L46.2857143,20.2654 C46.2857143,10.4753333 38.5367143,0 27,0 C15.4645714,0 7.71428571,10.4753333 7.71428571,20.2654 L7.71428571,30.4 L0,30.4 L0,76 L54,76 L54,30.4 L46.2857143,30.4 L46.2857143,30.4 Z" id="Fill-1777" sketch:type="MSShapeGroup"></path>
        </g>
    </g>
</svg>

<svg width="54" height="76" viewBox="0 0 54 76" xmlns="http://www.w3.org/2000/svg">
    <desc>
        Created with Sketch.
    </desc>
    <g fill="#1B1A19">
        <path d="M25.714 50.31v8.665c0 .71.576 1.266 1.286 1.266.71 0 1.286-.556 1.286-1.265V50.31c.765-.443 1.285-1.252 1.285-2.177 0-1.394-1.152-2.533-2.57-2.533s-2.57 1.14-2.57 2.533c0 .925.52 1.734 1.284 2.178"/>
        <path d="M2.57 32.933h48.86v40.532H2.57V32.933zm7.716-12.668c0-8.562 6.716-17.733 16.714-17.733 10 0 16.714 9.17 16.714 17.733V30.4H10.286V20.265zm36 10.135V20.265C46.286 10.475 38.536 0 27 0 15.465 0 7.714 10.475 7.714 20.265V30.4H0V76h54V30.4h-7.714z"/>
    </g>
</svg>
